16x16/apps/basingstoke.svg

<svg xmlns="http://www.w3.org/2000/svg" height="16" width="16" version="1.1">
 <rect style="fill:#5c29a1" rx="3" ry="3" height="16" width="16" y="0" x="0"/>
 <path style="fill:#efe3b7" d="m5 3c-3 0-3 3-3 3v4h3v3h6v-3h3v-4s0-3-3-3h-6zm0.5 3a1.5 1.5 0 0 1 1.5 1.5 1.5 1.5 0 0 1 -1.5 1.5 1.5 1.5 0 0 1 -1.5 -1.5 1.5 1.5 0 0 1 1.5 -1.5zm5 0a1.5 1.5 0 0 1 1.5 1.5 1.5 1.5 0 0 1 -1.5 1.5 1.5 1.5 0 0 1 -1.5 -1.5 1.5 1.5 0 0 1 1.5 -1.5z"/>
</svg>

<svg xmlns="http://www.w3.org/2000/svg" height="16" width="16"><rect style="fill:#5c29a1" rx="3" ry="3" height="16" width="16"/><path style="fill:#efe3b7" d="M5 3C2 3 2 6 2 6v4h3v3h6v-3h3V6s0-3-3-3H5zm.5 3A1.5 1.5 0 0 1 7 7.5 1.5 1.5 0 0 1 5.5 9 1.5 1.5 0 0 1 4 7.5 1.5 1.5 0 0 1 5.5 6zm5 0A1.5 1.5 0 0 1 12 7.5 1.5 1.5 0 0 1 10.5 9 1.5 1.5 0 0 1 9 7.5 1.5 1.5 0 0 1 10.5 6z"/></svg>
